packages/core/src/svgs/nex.svg

<svg width="24" height="24" viewBox="0 0 24 24" fill="none" xmlns="http://www.w3.org/2000/svg">
<g clip-path="url(#clip0_31_14771)">
<path d="M0 0H24V24H0V0Z" fill="#00B1FC"/>
<path d="M6.85718 7.06293V17.2415L10.7143 18.2444V10.5558C10.7143 10.0158 11.1 9.27864 11.8029 9.32578C12.51 9.37721 12.8572 9.87864 12.8572 10.3329V18.5058L16.7143 19.2858V7.47007C16.7443 5.2115 15.6172 4.71436 14.7429 4.71436C11.7857 4.71436 11.2586 7.54293 11.22 8.84578H10.7143V5.94436L6.85718 7.05864V7.06293Z" fill="#FFF600"/>
</g>
<defs>
<clipPath id="clip0_31_14771">
<rect width="24" height="24" fill="white"/>
</clipPath>
</defs>
</svg>

<svg xmlns="http://www.w3.org/2000/svg" width="24" height="24" fill="none" viewBox="0 0 24 24"><g clip-path="url(#a)"><path fill="#00B1FC" d="M0 0h24v24H0z"/><path fill="#FFF600" d="M6.857 7.063v10.179l3.857 1.002v-7.688c0-.54.386-1.277 1.089-1.23.707.051 1.054.553 1.054 1.007v8.173l3.857.78V7.47c.03-2.258-1.097-2.756-1.971-2.756-2.957 0-3.484 2.829-3.523 4.132h-.506V5.944L6.857 7.06z"/></g><defs><clipPath id="a"><path fill="#fff" d="M0 0h24v24H0z"/></clipPath></defs></svg>
